assets/img/icono_precio.svg

<svg width="96" height="96" viewBox="0 0 96 96" fill="none" xmlns="http://www.w3.org/2000/svg">
<path d="M48 62.25C50.8184 62.25 53.5735 61.4143 55.9169 59.8484C58.2603 58.2826 60.0867 56.0571 61.1653 53.4532C62.2438 50.8494 62.526 47.9842 61.9762 45.22C61.4263 42.4557 60.0692 39.9166 58.0763 37.9237C56.0834 35.9308 53.5443 34.5736 50.78 34.0238C48.0158 33.474 45.1506 33.7562 42.5468 34.8347C39.9429 35.9133 37.7174 37.7397 36.1516 40.0831C34.5857 42.4265 33.75 45.1816 33.75 48C33.75 51.7793 35.2513 55.4039 37.9237 58.0763C40.5961 60.7487 44.2207 62.25 48 62.25ZM48 38.25C49.9284 38.25 51.8134 38.8218 53.4168 39.8932C55.0202 40.9645 56.2699 42.4873 57.0078 44.2688C57.7458 46.0504 57.9389 48.0108 57.5627 49.9021C57.1864 51.7934 56.2579 53.5307 54.8943 54.8943C53.5307 56.2579 51.7934 57.1864 49.9021 57.5627C48.0108 57.9389 46.0504 57.7458 44.2688 57.0078C42.4873 56.2699 40.9645 55.0202 39.8932 53.4168C38.8218 51.8134 38.25 49.9284 38.25 48C38.25 45.4141 39.2772 42.9342 41.1057 41.1057C42.9342 39.2772 45.4141 38.25 48 38.25ZM90 21.75H6C5.40326 21.75 4.83097 21.9871 4.40901 22.409C3.98705 22.831 3.75 23.4033 3.75 24V72C3.75 72.5967 3.98705 73.169 4.40901 73.591C4.83097 74.0129 5.40326 74.25 6 74.25H90C90.5967 74.25 91.169 74.0129 91.591 73.591C92.0129 73.169 92.25 72.5967 92.25 72V24C92.25 23.4033 92.0129 22.831 91.591 22.409C91.169 21.9871 90.5967 21.75 90 21.75ZM8.25 40.8075C11.7436 39.8781 14.9298 38.0424 17.4861 35.4861C20.0424 32.9298 21.8781 29.7436 22.8075 26.25H73.1925C74.1219 29.7436 75.9576 32.9298 78.5139 35.4861C81.0702 38.0424 84.2564 39.8781 87.75 40.8075V55.1925C84.2564 56.1219 81.0702 57.9576 78.5139 60.5139C75.9576 63.0702 74.1219 66.2564 73.1925 69.75H22.8075C21.8781 66.2564 20.0424 63.0702 17.4861 60.5139C14.9298 57.9576 11.7436 56.1219 8.25 55.1925V40.8075ZM87.75 36.1088C85.4711 35.3126 83.4011 34.0127 81.6942 32.3058C79.9873 30.5989 78.6874 28.5289 77.8913 26.25H87.75V36.1088ZM18.1088 26.25C17.3126 28.5289 16.0127 30.5989 14.3058 32.3058C12.5989 34.0127 10.5289 35.3126 8.25 36.1088V26.25H18.1088ZM8.25 59.8913C10.5289 60.6874 12.5989 61.9873 14.3058 63.6942C16.0127 65.4011 17.3126 67.4711 18.1088 69.75H8.25V59.8913ZM77.8913 69.75C78.6874 67.4711 79.9873 65.4011 81.6942 63.6942C83.4011 61.9873 85.4711 60.6874 87.75 59.8913V69.75H77.8913Z" fill="#9F6F46"/>
</svg>

<svg width="96" height="96" fill="none" xmlns="http://www.w3.org/2000/svg"><path d="M48 62.25a14.25 14.25 0 1 0 0-28.499 14.25 14.25 0 0 0 0 28.499Zm0-24a9.75 9.75 0 1 1 0 19.499 9.75 9.75 0 0 1 0-19.499Zm42-16.5H6A2.25 2.25 0 0 0 3.75 24v48A2.25 2.25 0 0 0 6 74.25h84A2.25 2.25 0 0 0 92.25 72V24A2.25 2.25 0 0 0 90 21.75ZM8.25 40.807A20.524 20.524 0 0 0 22.808 26.25h50.384A20.524 20.524 0 0 0 87.75 40.807v14.386A20.524 20.524 0 0 0 73.192 69.75H22.808A20.524 20.524 0 0 0 8.25 55.193V40.806Zm79.5-4.698a16.051 16.051 0 0 1-9.859-9.859h9.859v9.859ZM18.109 26.25a16.051 16.051 0 0 1-9.859 9.859V26.25h9.859ZM8.25 59.891a16.05 16.05 0 0 1 9.859 9.859H8.25v-9.859Zm69.641 9.859a16.05 16.05 0 0 1 9.859-9.859v9.859h-9.859Z" fill="#9F6F46"/></svg>
